theme-base/src/main/assets/themes/mapsforgeV3/base/symbols/db_poi_jewish_star.svg

<svg enable-background="new 0 0 48 48" height="48" viewBox="0 0 48 48" width="48" xmlns="http://www.w3.org/2000/svg"><path d="m37.854 24 6.927-12h-13.854l-6.927-12-6.928 12h-13.857l6.928 12-6.928 12h13.857l6.928 12 6.927-12h13.854zm0-8-2.309 4-2.309-4zm-4.619 8-4.617 8h-9.237l-4.619-8 4.619-8h9.237zm-9.235-16 2.309 4h-4.619zm-13.857 8h4.619l-2.31 4zm.001 16 2.309-3.999 2.309 3.999zm13.856 8-2.31-4h4.618zm11.545-12 2.309 4h-4.617z"/></svg>

<?xml version="1.0" encoding="utf-8"?>
<!-- Generator: Adobe Illustrator 15.0.2, SVG Export Plug-In . SVG Version: 6.00 Build 0)  -->
<!DOCTYPE svg PUBLIC "-//W3C//DTD SVG 1.1//EN" "http://www.w3.org/Graphics/SVG/1.1/DTD/svg11.dtd">
<svg version="1.1" id="Vrstva_2" xmlns="http://www.w3.org/2000/svg" xmlns:xlink="http://www.w3.org/1999/xlink" x="0px" y="0px"
	 width="48px" height="48px" viewBox="0 0 48 48" enable-background="new 0 0 48 48" xml:space="preserve">
<path d="M37.854,24l6.927-12H30.927L24,0l-6.928,12H3.215l6.928,12L3.215,36h13.857L24,48l6.927-12h13.854L37.854,24z M37.854,16
	l-2.309,4l-2.309-4H37.854z M33.235,24l-4.617,8h-9.237l-4.619-8l4.619-8h9.237L33.235,24z M24,8l2.309,4H21.69L24,8z M10.143,16
	h4.619l-2.31,4L10.143,16z M10.144,32l2.309-3.999L14.762,32H10.144z M24,40l-2.31-4h4.618L24,40z M35.545,28l2.309,4h-4.617
	L35.545,28z"/>
</svg>
